X:1
T:Title
%%score { 1 | 2 }
L:1/8
Q:1/4=100
M:4/4
K:Bb
V:1 treble nm="Grand Piano"
V:2 bass 
V:1
 [DF]2 [DG]>[DF] [B,D] [DB]2 [B,FA] | [B,EG]>[B,FA] [B,GB]>[B,EG] [B,DF]4 | %2
w: Chas.~H.~Gabriel * * * * *||
 [F,B,D]2 [F,B,D]>[F,CE][K:treble] [B,DF] [DB]2 [DA] | [=EG]>[EA] [EB]>[EG] [A,_Ec]4 | %4
w: ||
 [DF]2 [DG]>[DF] [B,D] [DB]2 [FA] | [EG]>[FA] [GB]>[EG] [DF]3 [DF] | %6
w: ||
 [EG]>[FA] [GB]>[Ge] [Fd]2 [FB]2 | c2 A2 [DB]4 | [Fd]2 [DF]>[DG] [DF] [DB]2 [Dc] | %9
w: |||
 [EB]2 [EA]>[E_A] =A3 B | c2 c2 B>A G>A | [EG]2 [DF]2 [DF]4 | [Fd]2 [DF]>[DG] [DF] [DB]2 [FA] | %13
w: ||||
[M:5/4] [EG]2 [GB]2 [Ge]6 |[M:4/4] [Fd]2 [Fd]>[Ge] [Fd] [B,F]3 | %15
w: ||
 [B,=EG]>[CEG] (3[C_EA][CEA][EA] [DB]4 |] %16
w: |
V:2
 [B,,B,]2 [B,,B,]>[B,,B,] [B,,F,] [B,,F,]2 D, | E,>E, E,>E, B,,4 | %2
 B,,2 B,,>B,, B,, [B,,F,]2 [B,,B,] | [C,B,]>[C,A,] [C,G,]>[C,B,] [F,,F,]4 | %4
 [B,,B,]2 [B,,B,]>[B,,B,] [B,,F,] [B,,F,]2 [D,B,] | [E,B,]>[E,B,] [E,B,]>[E,B,] [B,,B,]3 [B,,B,] | %6
 [E,B,]>[E,B,] [E,B,]>[E,B,] [B,,B,]2 [D,B,]2 | [F,A,E]2 [F,E]2 [B,,F,]4 | %8
 [B,,B,]2 [B,,B,]>[B,,B,] [B,,B,] [B,,F,]2 [B,,F,] | [C,F,]2 [C,F,]>[C,F,] [F,CE]3 [F,G,E] | %10
 [F,A,E]2 [F,A,E]2 [F,CE]>[F,CE] [F,A,E]>[F,A,E] | [B,,B,]2 [B,,B,]2 [B,,B,]4 | %12
 [B,,B,]2 [B,,B,]>[B,,B,] [B,,B,] [B,,F,]2 [D,B,] |[M:5/4] [E,B,]2 [E,B,]2 [E,B,]6 | %14
[M:4/4] [B,,B,]2 [B,,B,]>[B,,B,] [B,,B,] D,3 | C,>C, (3F,F,F, [B,,F,]4 |] %16

